X:1
T:St. Paul’s
T:St. Paul’s
T:Courtesy of the Cyber Hymnal (http://www.cyberhymnal.org)
T:Courtesy of the Cyber Hymnal (http://www.cyberhymnal.org)
Z:Courtesy of the Cyber Hymnal (http://www.cyberhymnal.org)
%%score { ( 1 2 ) ( 3 4 ) }
L:1/8
Q:1/4=115
M:1/4
K:D
V:1 treble nm="P1"
V:2 treble 
V:3 bass nm="P2"
V:4 bass 
V:1
"^Editor: John Henry Fowler""^( Revision: 12-3-2007 )" A2 |[M:4/4] A2 G2 F2 G2 | E6 B2 | %3
 A2 G2 F2 E2 |"^( 1875 )" F6 d2 | c2 e2 d2 c2 | d2 G2 F2 E2 | %7
 A2 B2"^John Stainer" F2"^( 1840 - 1901 )" E2 |[M:3/4] D6 |] %9
V:2
 F2 |[M:4/4] E2 E2 D2 E2 | C6 D2 | D2 E2 D2 C2 | D6 F2 | G2 E2 F2 E2 | D2 D2 D2 C2 | D2 D2 D2 C2 | %8
[M:3/4] D6 |] %9
V:3
"^Words: Synesius of Cyrene, circa 430 (Μνώεο Χριστέ); translated from Greek to English by Allen W. Chatfield, Songs and Hymns of Earliest Greek Christian Poets, 1876." A,2 | %1
[M:4/4] A,2 C2 D2 B,2 | A,6 G,2 | %3
"^1.  Lord Jesus, think on meAnd purge away my sin;From earthborn passions set me freeAnd make me pure within.2.  Lord Jesus, think on me,With many a care oppressed;Let me Thy loving servant beAnd taste Thy promised rest.3.  Lord Jesus, think on meAmid the battle’s strife;In all my pain and miseryBe Thou my Health and Life.4.  Lord Jesus, think on meNor let me go astray;Through darkness and perplexityPoint Thou the heavenly way.5.  Lord Jesus, think on meWhen floods the tempest high;When on doth rush the enemy,O Savior, be Thou nigh!6.  Lord Jesus, think on meThat, when the flood is past,I may th’eternal brightness seeAnd share Thy joy at last.7. Lord Jesus, think on meThat I may sing aboveTo Father, Spirit, and to TheeThe strains of praise and love." A,2 B,2 A,2 A,2 | %4
 A,6 B,2 | [E,B,]2 [G,B,]2 [F,B,]2 [F,^A,]2 | B,2 D2 D2 A,2 | A,2 D2 A,2 G,2 |[M:3/4] F,6 |] %9
V:4
 D,2 |[M:4/4] C,2 A,,2 B,,2 G,,2 | A,,6 G,2 | F,2 G,2 A,2 A,,2 | D,6 B,,2 | x8 | B,,2 B,2 A,2 G,2 | %7
 F,2 G,2 A,2 A,,2 |[M:3/4] D,6 |] %9

